svgs/sharp-regular/rainbow.svg

<svg xmlns="http://www.w3.org/2000/svg" viewBox="0 0 640 512"><!--! Font Awesome Pro 6.6.0 by @fontawesome - https://fontawesome.com License - https://fontawesome.com/license (Commercial License) Copyright 2024 Fonticons, Inc. --><path d="M320 88C169.8 88 48 209.8 48 360l0 96 0 24L0 480l0-24 0-96C0 183.3 143.3 40 320 40s320 143.3 320 320l0 96 0 24-48 0 0-24 0-96C592 209.8 470.2 88 320 88zm0 224c-26.5 0-48 21.5-48 48l0 96 0 24-48 0 0-24 0-96c0-53 43-96 96-96s96 43 96 96l0 96 0 24-48 0 0-24 0-96c0-26.5-21.5-48-48-48zM160 360l0 96 0 24-48 0 0-24 0-96c0-114.9 93.1-208 208-208s208 93.1 208 208l0 96 0 24-48 0 0-24 0-96c0-88.4-71.6-160-160-160s-160 71.6-160 160z"/></svg>

<svg xmlns="http://www.w3.org/2000/svg" viewBox="0 0 640 512"><!--! Font Awesome Pro 6.4.2 by @fontawesome - https://fontawesome.com License - https://fontawesome.com/license (Commercial License) Copyright 2023 Fonticons, Inc. --><path d="M320 88C169.8 88 48 209.8 48 360v96 24H0V456 360C0 183.3 143.3 40 320 40s320 143.3 320 320v96 24H592V456 360C592 209.8 470.2 88 320 88zm0 224c-26.5 0-48 21.5-48 48v96 24H224V456 360c0-53 43-96 96-96s96 43 96 96v96 24H368V456 360c0-26.5-21.5-48-48-48zM160 360v96 24H112V456 360c0-114.9 93.1-208 208-208s208 93.1 208 208v96 24H480V456 360c0-88.4-71.6-160-160-160s-160 71.6-160 160z"/></svg>
